X:1
T:Amor fa quanto sai
T:Luca Marenzio
T:Source : Il secondo Libro delle canzonette alla Napolitana a tre voci---Venetia---G.Vincenti---1587. Editor : André Vierendeels (01/05/17).
T:Notes : Original clefs : G2, C1, F3 Editorial accidentals above the staff "Seconda impressione" Music collected by Attilio Gualtieri
T:Amor fa quanto sai
T:©
T:©
C:Luca Marenzio
Z:©
%%score [ 1 2 3 ]
L:1/8
Q:1/4=120
M:4/4
K:C
V:1 treble nm="Soprano 1" snm="S 1"
V:2 treble nm="Soprano 2" snm="S 2"
V:3 treble-8 nm="Tenor" snm="T"
V:1
"^1)" c8 | e8 | f2 c4 c2 | d4 d4 | e2 f2 g4- | g2 f4 e2 | d3 e f2 f2 | e8 |1[M:2/4] d4 :|2 %9
w: A-|mor|fa quan- to|sa- i,|che si- gnor|_ piu di|me tu non sa-|ra-|i,|
w: A-|mor|a- ven- ta|stra- li,|e fiam- me'al|_ mi- ser|cor as- pri'e mor-|ta-|li,|
[M:4/4] d2 f2 e2 ^f2 || g2 e2 d2 e2 | f2 d2 c2 dd | B2 c2 B2 ^c2 | d2 B2 A2 B2 | c8 | G4 z2 e2 | %16
w: i, nè men fi-|drom- mi di tua|tre- gua'o pa- ce, nè|men fi- drom- mi|di tua tre- gua'o|pa-|ce, scor-|
w: li, che con lo|scu- do di un|fie- ro sde- gno, che|con le scu- do|di un fie- ro|sde-|gno, fa-|
 g3 g g2 f2 | e8 | f4 ef g2- | g2 d2 d4 | c8 :| %21
w: gen- do ti fan-|ci-|ul ci- e- co|_ fal- la-|ce.|
w: ro tuoi col- pi|va-|ni, e tu- o|_ di- se-|gno.|
V:2
"^2)""^1)" E8 | G8 | A2 A4 c2 | B4 B4 | c2 d2 e4- | e2 d4 c2 | B3 c d2 d2- | d2 ^cB c4 |1 %8
w: A-|mor|fa quan- to|sa- i,|che si- gnor|_ piu di|me tu non sa-|ra- * * *|
w: A-|mor|se tua pos-|san- za,|nel pet- to|_ de mor-|ta- li'ogn' al- tr'a-|* * * van|
[M:2/4] d4 :|2[M:4/4] d4 A4 || G4 G4 | F4 F4 | E4 E4 | D4 D4 | E8 | E4 z2 c2 | e3 d e2 d2 | ^c8 | %18
w: i,|i, nè|men fi-|drom- mi|di tua|tre- gua'o|pa-|ce, scor-|gen- do ti fan-|ci-|
w: za,|za, mai|piu den-|tro del|mio non|ha- vra|for-|za, ch'o-|gni tua pos- sa"un|giu-|
 d4 G2 c2- | c2 BA B4 | c8 :| %21
w: ul cie- co|_ fal _ la-|ce.|
w: sto sde- gno|_ smor- * *|za.|
V:3
"^3)""^1)""^4)" C8 | c8 | F2 F4 A2 | G4 G4 | E2 D2 C4- | C2 D4 E2 | G3 E D2 D2 | A8 |1 %8
w: A-|mor|fa quan- to|sa- i,|che si- gnor|_ piu di|me tu non sa-|ra-|
w: A-|mor|in- i- quo'ar-|cie- ro,|piu non ri-|* tor- ne-|rai nel mio pen-|sie-|
[M:2/4] D4 :|2[M:4/4] D2 d2 ^c2 d2 ||"^-natural" B2 c2 B2 c2 | A2 _B2 A2 BB | G2 A2 ^G2 A2 | %13
w: i,|i, ne men fi-|drom- mi di tua|tre- gua'o pa- ce ne|me fi- drom- mi|
w: ro,|ro, ma sen- za|te vi- vro lie-|to'e con- ten- to, ma|sen- za te vi-|
 ^F2 G2 F2 G2 | C8 | C4 c4 | c3 B c2 d2 | A8 | D4 E3 F | G8 | C8 :| %21
w: do tua tre- gua'o|pa-|ce, scor-|gen- do ti fan-|ciul|cie- co fal-|la-|ce.|
w: vro lie- to'e con-|ten-|to, che|del pas- sa- to'er-|ror|mi do- glio'e|pen-|to.|

